bernoullicharts/log_1_x_flajolet__bound.svg

<?xml version="1.0" encoding="utf-8" standalone="no"?>
<!DOCTYPE svg PUBLIC "-//W3C//DTD SVG 1.1//EN"
  "http://www.w3.org/Graphics/SVG/1.1/DTD/svg11.dtd">
<!-- Created with matplotlib (https://matplotlib.org/) -->
<svg height="345.6pt" version="1.1" viewBox="0 0 460.8 345.6" width="460.8pt" xmlns="http://www.w3.org/2000/svg" xmlns:xlink="http://www.w3.org/1999/xlink">
 <defs>
  <style type="text/css">
*{stroke-linecap:butt;stroke-linejoin:round;}
  </style>
 </defs>
 <g id="figure_1">
  <g id="patch_1">
   <path d="M 0 345.6 
L 460.8 345.6 
L 460.8 0 
L 0 0 
z
" style="fill:#ffffff;"/>
  </g>
  <g id="axes_1">
   <g id="patch_2">
    <path d="M 57.6 307.584 
L 414.72 307.584 
L 414.72 41.472 
L 57.6 41.472 
z
" style="fill:#ffffff;"/>
   </g>
   <g id="matplotlib.axis_1">
    <g id="xtick_1">
     <g id="line2d_1">
      <defs>
       <path d="M 0 0 
L 0 3.5 
" id="m5f5371fd59" style="stroke:#000000;stroke-width:0.8;"/>
      </defs>
      <g>
       <use style="stroke:#000000;stroke-width:0.8;" x="73.800255" xlink:href="#m5f5371fd59" y="307.584"/>
      </g>
     </g>
     <g id="text_1">
      <text style="font-family:DejaVu Sans;font-size:10px;font-style:normal;font-weight:normal;text-anchor:middle;" transform="rotate(-0, 73.800255, 322.182437)" x="73.800255" y="322.182437">0.0</text>
     </g>
    </g>
    <g id="xtick_2">
     <g id="line2d_2">
      <g>
       <use style="stroke:#000000;stroke-width:0.8;" x="138.744153" xlink:href="#m5f5371fd59" y="307.584"/>
      </g>
     </g>
     <g id="text_2">
      <text style="font-family:DejaVu Sans;font-size:10px;font-style:normal;font-weight:normal;text-anchor:middle;" transform="rotate(-0, 138.744153, 322.182437)" x="138.744153" y="322.182437">0.2</text>
     </g>
    </g>
    <g id="xtick_3">
     <g id="line2d_3">
      <g>
       <use style="stroke:#000000;stroke-width:0.8;" x="203.688051" xlink:href="#m5f5371fd59" y="307.584"/>
      </g>
     </g>
     <g id="text_3">
      <text style="font-family:DejaVu Sans;font-size:10px;font-style:normal;font-weight:normal;text-anchor:middle;" transform="rotate(-0, 203.688051, 322.182437)" x="203.688051" y="322.182437">0.4</text>
     </g>
    </g>
    <g id="xtick_4">
     <g id="line2d_4">
      <g>
       <use style="stroke:#000000;stroke-width:0.8;" x="268.631949" xlink:href="#m5f5371fd59" y="307.584"/>
      </g>
     </g>
     <g id="text_4">
      <text style="font-family:DejaVu Sans;font-size:10px;font-style:normal;font-weight:normal;text-anchor:middle;" transform="rotate(-0, 268.631949, 322.182437)" x="268.631949" y="322.182437">0.6</text>
     </g>
    </g>
    <g id="xtick_5">
     <g id="line2d_5">
      <g>
       <use style="stroke:#000000;stroke-width:0.8;" x="333.575847" xlink:href="#m5f5371fd59" y="307.584"/>
      </g>
     </g>
     <g id="text_5">
      <text style="font-family:DejaVu Sans;font-size:10px;font-style:normal;font-weight:normal;text-anchor:middle;" transform="rotate(-0, 333.575847, 322.182437)" x="333.575847" y="322.182437">0.8</text>
     </g>
    </g>
    <g id="xtick_6">
     <g id="line2d_6">
      <g>
       <use style="stroke:#000000;stroke-width:0.8;" x="398.519745" xlink:href="#m5f5371fd59" y="307.584"/>
      </g>
     </g>
     <g id="text_6">
      <text style="font-family:DejaVu Sans;font-size:10px;font-style:normal;font-weight:normal;text-anchor:middle;" transform="rotate(-0, 398.519745, 322.182437)" x="398.519745" y="322.182437">1.0</text>
     </g>
    </g>
    <g id="text_7">
     <text style="font-family:DejaVu Sans;font-size:10px;font-style:normal;font-weight:normal;text-anchor:middle;" transform="rotate(-0, 236.16, 335.860562)" x="236.16" y="335.860562">Input Coin's Heads Probability (λ)</text>
    </g>
   </g>
   <g id="matplotlib.axis_2">
    <g id="ytick_1">
     <g id="line2d_7">
      <defs>
       <path d="M 0 0 
L -3.5 0 
" id="m6e596bba92" style="stroke:#000000;stroke-width:0.8;"/>
      </defs>
      <g>
       <use style="stroke:#000000;stroke-width:0.8;" x="57.6" xlink:href="#m6e596bba92" y="295.4908"/>
      </g>
     </g>
     <g id="text_8">
      <text style="font-family:DejaVu Sans;font-size:10px;font-style:normal;font-weight:normal;text-anchor:end;" transform="rotate(-0, 50.6, 299.290018)" x="50.6" y="299.290018">0</text>
     </g>
    </g>
    <g id="ytick_2">
     <g id="line2d_8">
      <g>
       <use style="stroke:#000000;stroke-width:0.8;" x="57.6" xlink:href="#m6e596bba92" y="247.849445"/>
      </g>
     </g>
     <g id="text_9">
      <text style="font-family:DejaVu Sans;font-size:10px;font-style:normal;font-weight:normal;text-anchor:end;" transform="rotate(-0, 50.6, 251.648664)" x="50.6" y="251.648664">2</text>
     </g>
    </g>
    <g id="ytick_3">
     <g id="line2d_9">
      <g>
       <use style="stroke:#000000;stroke-width:0.8;" x="57.6" xlink:href="#m6e596bba92" y="200.20809"/>
      </g>
     </g>
     <g id="text_10">
      <text style="font-family:DejaVu Sans;font-size:10px;font-style:normal;font-weight:normal;text-anchor:end;" transform="rotate(-0, 50.6, 204.007309)" x="50.6" y="204.007309">4</text>
     </g>
    </g>
    <g id="ytick_4">
     <g id="line2d_10">
      <g>
       <use style="stroke:#000000;stroke-width:0.8;" x="57.6" xlink:href="#m6e596bba92" y="152.566735"/>
      </g>
     </g>
     <g id="text_11">
      <text style="font-family:DejaVu Sans;font-size:10px;font-style:normal;font-weight:normal;text-anchor:end;" transform="rotate(-0, 50.6, 156.365954)" x="50.6" y="156.365954">6</text>
     </g>
    </g>
    <g id="ytick_5">
     <g id="line2d_11">
      <g>
       <use style="stroke:#000000;stroke-width:0.8;" x="57.6" xlink:href="#m6e596bba92" y="104.92538"/>
      </g>
     </g>
     <g id="text_12">
      <text style="font-family:DejaVu Sans;font-size:10px;font-style:normal;font-weight:normal;text-anchor:end;" transform="rotate(-0, 50.6, 108.724599)" x="50.6" y="108.724599">8</text>
     </g>
    </g>
    <g id="ytick_6">
     <g id="line2d_12">
      <g>
       <use style="stroke:#000000;stroke-width:0.8;" x="57.6" xlink:href="#m6e596bba92" y="57.284026"/>
      </g>
     </g>
     <g id="text_13">
      <text style="font-family:DejaVu Sans;font-size:10px;font-style:normal;font-weight:normal;text-anchor:end;" transform="rotate(-0, 50.6, 61.083244)" x="50.6" y="61.083244">10</text>
     </g>
    </g>
    <g id="text_14">
     <text style="font-family:DejaVu Sans;font-size:10px;font-style:normal;font-weight:normal;text-anchor:middle;" transform="rotate(-90, 31.795312, 174.528)" x="31.795312" y="174.528">Coin Flips Needed</text>
    </g>
   </g>
   <g id="line2d_13">
    <path clip-path="url(#p8cf2af8156)" d="M 73.832727 271.673695 
L 77.112066 272.031075 
L 80.391405 272.381819 
L 83.670744 272.726164 
L 86.950083 273.064337 
L 90.229421 273.396556 
L 93.50876 273.72303 
L 96.788099 274.043961 
L 100.067438 274.359543 
L 103.346777 274.669963 
L 106.626116 274.975401 
L 109.905455 275.27603 
L 113.184793 275.572018 
L 116.464132 275.863527 
L 119.743471 276.150713 
L 123.02281 276.433726 
L 126.302149 276.712713 
L 129.581488 276.987815 
L 132.860826 277.259167 
L 136.140165 277.526904 
L 139.419504 277.791152 
L 142.698843 278.052037 
L 145.978182 278.309679 
L 149.257521 278.564196 
L 152.53686 278.815702 
L 155.816198 279.064308 
L 159.095537 279.310121 
L 162.374876 279.553248 
L 165.654215 279.79379 
L 168.933554 280.031848 
L 172.212893 280.267519 
L 175.492231 280.500899 
L 178.77157 280.732081 
L 182.050909 280.961156 
L 185.330248 281.188215 
L 188.609587 281.413343 
L 191.888926 281.636629 
L 195.168264 281.858155 
L 198.447603 282.078005 
L 201.726942 282.296261 
L 205.006281 282.513004 
L 208.28562 282.728312 
L 211.564959 282.942263 
L 214.844298 283.154936 
L 218.123636 283.366406 
L 221.402975 283.576749 
L 224.682314 283.78604 
L 227.961653 283.994354 
L 231.240992 284.201764 
L 234.520331 284.408344 
L 237.799669 284.614166 
L 241.079008 284.819304 
L 244.358347 285.02383 
L 247.637686 285.227816 
L 250.917025 285.431336 
L 254.196364 285.634461 
L 257.475702 285.837265 
L 260.755041 286.03982 
L 264.03438 286.2422 
L 267.313719 286.444479 
L 270.593058 286.646731 
L 273.872397 286.849031 
L 277.151736 287.051455 
L 280.431074 287.254079 
L 283.710413 287.456981 
L 286.989752 287.66024 
L 290.269091 287.863935 
L 293.54843 288.068147 
L 296.827769 288.272958 
L 300.107107 288.478454 
L 303.386446 288.684718 
L 306.665785 288.891839 
L 309.945124 289.099906 
L 313.224463 289.30901 
L 316.503802 289.519244 
L 319.78314 289.730706 
L 323.062479 289.943494 
L 326.341818 290.157708 
L 329.621157 290.373454 
L 332.900496 290.590839 
L 336.179835 290.809974 
L 339.459174 291.030973 
L 342.738512 291.253956 
L 346.017851 291.479044 
L 349.29719 291.706364 
L 352.576529 291.936049 
L 355.855868 292.168235 
L 359.135207 292.403063 
L 362.414545 292.640683 
L 365.693884 292.881247 
L 368.973223 293.124916 
L 372.252562 293.371858 
L 375.531901 293.622247 
L 378.81124 293.876266 
L 382.090579 294.134107 
L 385.369917 294.395969 
L 388.649256 294.662063 
L 391.928595 294.93261 
L 395.207934 295.207841 
L 398.487273 295.488 
" style="fill:none;stroke:#1f77b4;stroke-linecap:square;stroke-width:1.5;"/>
   </g>
   <g id="line2d_14">
    <path clip-path="url(#p8cf2af8156)" d="M 73.832727 260.093273 
L 77.112066 259.807425 
L 80.391405 260.188556 
L 83.670744 259.807425 
L 86.950083 260.140914 
L 90.229421 260.379121 
L 93.50876 260.950817 
L 96.788099 259.664501 
L 100.067438 260.950817 
L 103.346777 259.378653 
L 106.626116 260.760252 
L 109.905455 259.616859 
L 113.184793 260.188556 
L 116.464132 260.379121 
L 119.743471 259.378653 
L 123.02281 259.140446 
L 126.302149 259.616859 
L 129.581488 259.092805 
L 132.860826 260.950817 
L 136.140165 260.522045 
L 139.419504 260.33148 
L 142.698843 260.188556 
L 145.978182 260.522045 
L 149.257521 258.854598 
L 152.53686 261.665438 
L 155.816198 259.855066 
L 159.095537 258.664032 
L 162.374876 258.854598 
L 165.654215 259.855066 
L 168.933554 259.28337 
L 172.212893 259.331011 
L 175.492231 259.902708 
L 178.77157 259.759784 
L 182.050909 259.807425 
L 185.330248 259.188087 
L 188.609587 259.712142 
L 191.888926 259.188087 
L 195.168264 258.092336 
L 198.447603 259.378653 
L 201.726942 260.379121 
L 205.006281 258.806956 
L 208.28562 257.997053 
L 211.564959 257.854129 
L 214.844298 256.948944 
L 218.123636 257.949412 
L 221.402975 259.045163 
L 224.682314 255.996116 
L 227.961653 257.52064 
L 231.240992 259.712142 
L 234.520331 257.615923 
L 237.799669 257.901771 
L 241.079008 256.139041 
L 244.358347 256.091399 
L 247.637686 257.901771 
L 250.917025 258.902239 
L 254.196364 258.664032 
L 257.475702 257.18715 
L 260.755041 258.187619 
L 264.03438 257.711205 
L 267.313719 254.090462 
L 270.593058 256.329606 
L 273.872397 253.66169 
L 277.151736 255.996116 
L 280.431074 254.852724 
L 283.710413 254.995648 
L 286.989752 253.375842 
L 290.269091 255.42442 
L 293.54843 249.42161 
L 296.827769 253.947538 
L 300.107107 251.660753 
L 303.386446 254.852724 
L 306.665785 252.137167 
L 309.945124 251.946601 
L 313.224463 246.848976 
L 316.503802 251.470188 
L 319.78314 250.279154 
L 323.062479 249.755099 
L 326.341818 250.803209 
L 329.621157 246.181997 
L 332.900496 247.32539 
L 336.179835 245.610301 
L 339.459174 247.801803 
L 342.738512 247.992369 
L 346.017851 247.087183 
L 349.29719 247.277749 
L 352.576529 245.943791 
L 355.855868 246.181997 
L 359.135207 240.941448 
L 362.414545 242.132482 
L 365.693884 242.894744 
L 368.973223 237.749478 
L 372.252562 239.22636 
L 375.531901 233.032983 
L 378.81124 228.078283 
L 382.090579 230.126861 
L 385.369917 217.78775 
L 388.649256 212.975973 
L 391.928595 212.594842 
L 395.207934 208.497686 
L 398.487273 53.568 
" style="fill:none;stroke:#ff7f0e;stroke-linecap:square;stroke-width:1.5;"/>
   </g>
   <g id="patch_3">
    <path d="M 57.6 307.584 
L 57.6 41.472 
" style="fill:none;stroke:#000000;stroke-linecap:square;stroke-linejoin:miter;stroke-width:0.8;"/>
   </g>
   <g id="patch_4">
    <path d="M 414.72 307.584 
L 414.72 41.472 
" style="fill:none;stroke:#000000;stroke-linecap:square;stroke-linejoin:miter;stroke-width:0.8;"/>
   </g>
   <g id="patch_5">
    <path d="M 57.6 307.584 
L 414.72 307.584 
" style="fill:none;stroke:#000000;stroke-linecap:square;stroke-linejoin:miter;stroke-width:0.8;"/>
   </g>
   <g id="patch_6">
    <path d="M 57.6 41.472 
L 414.72 41.472 
" style="fill:none;stroke:#000000;stroke-linecap:square;stroke-linejoin:miter;stroke-width:0.8;"/>
   </g>
   <g id="text_15">
    <text style="font-family:DejaVu Sans;font-size:12px;font-style:normal;font-weight:normal;text-anchor:middle;" transform="rotate(-0, 236.16, 35.472)" x="236.16" y="35.472">Coin Flips for log(1+x)</text>
   </g>
   <g id="legend_1">
    <g id="patch_7">
     <path d="M 64.6 78.82825 
L 282.8625 78.82825 
Q 284.8625 78.82825 284.8625 76.82825 
L 284.8625 48.472 
Q 284.8625 46.472 282.8625 46.472 
L 64.6 46.472 
Q 62.6 46.472 62.6 48.472 
L 62.6 76.82825 
Q 62.6 78.82825 64.6 78.82825 
z
" style="fill:#ffffff;opacity:0.8;stroke:#cccccc;stroke-linejoin:miter;"/>
    </g>
    <g id="line2d_15">
     <path d="M 66.6 54.570437 
L 86.6 54.570437 
" style="fill:none;stroke:#1f77b4;stroke-linecap:square;stroke-width:1.5;"/>
    </g>
    <g id="line2d_16"/>
    <g id="text_16">
     <text style="font-family:DejaVu Sans;font-size:10px;font-style:normal;font-weight:normal;text-anchor:start;" transform="rotate(-0, 94.6, 58.070437)" x="94.6" y="58.070437">Coin Flip Lower Bound</text>
    </g>
    <g id="line2d_17">
     <path d="M 66.6 69.248562 
L 86.6 69.248562 
" style="fill:none;stroke:#ff7f0e;stroke-linecap:square;stroke-width:1.5;"/>
    </g>
    <g id="line2d_18"/>
    <g id="text_17">
     <text style="font-family:DejaVu Sans;font-size:10px;font-style:normal;font-weight:normal;text-anchor:start;" transform="rotate(-0, 94.6, 72.748562)" x="94.6" y="72.748562">Avg. Coins Flipped log(1+x) (Flajolet)</text>
    </g>
   </g>
  </g>
 </g>
 <defs>
  <clipPath id="p8cf2af8156">
   <rect height="266.112" width="357.12" x="57.6" y="41.472"/>
  </clipPath>
 </defs>
</svg>

<svg height="460.8" viewBox="0 0 460.8 345.6" width="614.4" xmlns="http://www.w3.org/2000/svg" xmlns:xlink="http://www.w3.org/1999/xlink"><defs><style>*{stroke-linecap:butt;stroke-linejoin:round}</style></defs><g id="figure_1"><path d="M0 345.6h460.8V0H0z" fill="#fff" id="patch_1"/><g id="axes_1"><path d="M57.6 307.584h357.12V41.472H57.6z" fill="#fff" id="patch_2"/><g id="matplotlib.axis_1"><g id="xtick_1"><g id="line2d_1"><defs><path d="M0 0v3.5" id="m5f5371fd59" stroke="#000" stroke-width=".8"/></defs><use x="73.8" xlink:href="#m5f5371fd59" y="307.584" stroke="#000" stroke-width=".8"/></g><text x="73.8" y="322.182" font-family="DejaVu Sans" font-size="10" font-weight="400" text-anchor="middle" id="text_1">0.0</text></g><g id="xtick_2"><use x="138.744" xlink:href="#m5f5371fd59" y="307.584" stroke="#000" stroke-width=".8" id="line2d_2"/><text x="138.744" y="322.182" font-family="DejaVu Sans" font-size="10" font-weight="400" text-anchor="middle" id="text_2">0.2</text></g><g id="xtick_3"><use x="203.688" xlink:href="#m5f5371fd59" y="307.584" stroke="#000" stroke-width=".8" id="line2d_3"/><text x="203.688" y="322.182" font-family="DejaVu Sans" font-size="10" font-weight="400" text-anchor="middle" id="text_3">0.4</text></g><g id="xtick_4"><use x="268.632" xlink:href="#m5f5371fd59" y="307.584" stroke="#000" stroke-width=".8" id="line2d_4"/><text x="268.632" y="322.182" font-family="DejaVu Sans" font-size="10" font-weight="400" text-anchor="middle" id="text_4">0.6</text></g><g id="xtick_5"><use x="333.576" xlink:href="#m5f5371fd59" y="307.584" stroke="#000" stroke-width=".8" id="line2d_5"/><text x="333.576" y="322.182" font-family="DejaVu Sans" font-size="10" font-weight="400" text-anchor="middle" id="text_5">0.8</text></g><g id="xtick_6"><use x="398.52" xlink:href="#m5f5371fd59" y="307.584" stroke="#000" stroke-width=".8" id="line2d_6"/><text x="398.52" y="322.182" font-family="DejaVu Sans" font-size="10" font-weight="400" text-anchor="middle" id="text_6">1.0</text></g><text x="236.16" y="335.861" font-family="DejaVu Sans" font-size="10" font-weight="400" text-anchor="middle" id="text_7">Input Coin&apos;s Heads Probability (λ)</text></g><g id="matplotlib.axis_2"><g id="ytick_1"><g id="line2d_7"><defs><path d="M0 0h-3.5" id="m6e596bba92" stroke="#000" stroke-width=".8"/></defs><use x="57.6" xlink:href="#m6e596bba92" y="295.491" stroke="#000" stroke-width=".8"/></g><text x="50.6" y="299.29" font-family="DejaVu Sans" font-size="10" font-weight="400" text-anchor="end" id="text_8">0</text></g><g id="ytick_2"><use x="57.6" xlink:href="#m6e596bba92" y="247.849" stroke="#000" stroke-width=".8" id="line2d_8"/><text x="50.6" y="251.649" font-family="DejaVu Sans" font-size="10" font-weight="400" text-anchor="end" id="text_9">2</text></g><g id="ytick_3"><use x="57.6" xlink:href="#m6e596bba92" y="200.208" stroke="#000" stroke-width=".8" id="line2d_9"/><text x="50.6" y="204.007" font-family="DejaVu Sans" font-size="10" font-weight="400" text-anchor="end" id="text_10">4</text></g><g id="ytick_4"><use x="57.6" xlink:href="#m6e596bba92" y="152.567" stroke="#000" stroke-width=".8" id="line2d_10"/><text x="50.6" y="156.366" font-family="DejaVu Sans" font-size="10" font-weight="400" text-anchor="end" id="text_11">6</text></g><g id="ytick_5"><use x="57.6" xlink:href="#m6e596bba92" y="104.925" stroke="#000" stroke-width=".8" id="line2d_11"/><text x="50.6" y="108.725" font-family="DejaVu Sans" font-size="10" font-weight="400" text-anchor="end" id="text_12">8</text></g><g id="ytick_6"><use x="57.6" xlink:href="#m6e596bba92" y="57.284" stroke="#000" stroke-width=".8" id="line2d_12"/><text x="50.6" y="61.083" font-family="DejaVu Sans" font-size="10" font-weight="400" text-anchor="end" id="text_13">10</text></g><text transform="rotate(-90 31.795 174.528)" x="31.795" y="174.528" font-family="DejaVu Sans" font-size="10" font-weight="400" text-anchor="middle" id="text_14">Coin Flips Needed</text></g><path clip-path="url(#p8cf2af8156)" d="M73.833 271.674l3.28.357 3.278.35 3.28.345 3.28.338 3.278.333 3.28.326 3.28.321 3.278.316 3.28.31 3.28.305 3.278.301 3.28.296 3.28.292 3.278.287 3.28.283 3.28.279 3.278.275 3.28.271 3.28.268 3.279.264 3.279.261 3.28.258 3.279.254 3.279.252 3.28.248 3.279.246 3.279.243 3.28.24 3.279.239 3.279.236 3.28.233 3.279.231 3.279.23 3.28.226 3.279.225 3.279.224 3.28.221 3.279.22 3.279.218 3.28.217 3.279.215 3.279.214 3.28.213 3.279.211 3.279.21 3.28.21 3.279.208 3.279.208 3.28.206 3.279.206 3.279.205 3.28.205 3.279.204 3.279.203 3.28.203 3.279.203 3.279.203 3.28.202 3.279.202 3.28.203 3.278.202 3.28.202 3.28.203 3.278.203 3.28.203 3.28.204 3.278.204 3.28.205 3.28.205 3.278.207 3.28.207 3.28.208 3.278.209 3.28.21 3.28.212 3.278.212 3.28.215 3.28.215 3.278.218 3.28.219 3.28.221 3.279.223 3.279.225 3.28.227 3.279.23 3.279.232 3.28.235 3.279.238 3.279.24 3.28.244 3.279.247 3.279.25 3.28.254 3.279.258 3.279.262 3.28.266 3.279.27 3.279.276 3.28.28" fill="none" stroke="#1f77b4" stroke-linecap="square" stroke-width="1.5" id="line2d_13"/><path clip-path="url(#p8cf2af8156)" d="M73.833 260.093l3.28-.286 3.278.382 3.28-.382 3.28.334 3.278.238 3.28.572 3.28-1.286 3.278 1.286 3.28-1.572 3.28 1.381 3.278-1.143 3.28.572 3.28.19 3.278-1 3.28-.239 3.28.477 3.278-.524 3.28 1.858 3.28-.429 3.279-.19 3.279-.143 3.28.333 3.279-1.667 3.279 2.81 3.28-1.81 3.279-1.191 3.279.19 3.28 1.001 3.279-.572 3.279.048 3.28.572 3.279-.143 3.279.047 3.28-.619 3.279.524 3.279-.524 3.28-1.096 3.279 1.287 3.279 1 3.28-1.572 3.279-.81 3.279-.143 3.28-.905 3.279 1 3.279 1.096 3.28-3.049 3.279 1.525 3.279 2.191 3.28-2.096 3.279.286 3.279-1.763 3.28-.048 3.279 1.81 3.279 1.001 3.28-.238 3.279-1.477 3.279 1 3.28-.476 3.279-3.62 3.28 2.239 3.278-2.668 3.28 2.334 3.28-1.143 3.278.143 3.28-1.62 3.28 2.048 3.278-6.002 3.28 4.526 3.28-2.287 3.278 3.192 3.28-2.716 3.28-.19 3.278-5.098 3.28 4.621 3.28-1.19 3.278-.525 3.28 1.048 3.28-4.621 3.278 1.143 3.28-1.715 3.28 2.192 3.279.19 3.279-.905 3.28.19 3.279-1.333 3.279.238 3.28-5.24 3.279 1.19 3.279.763 3.28-5.146 3.279 1.477 3.279-6.193 3.28-4.955 3.279 2.049 3.279-12.34 3.28-4.811 3.279-.381 3.279-4.097 3.28-154.93" fill="none" stroke="#ff7f0e" stroke-linecap="square" stroke-width="1.5" id="line2d_14"/><path d="M57.6 307.584V41.472" fill="none" stroke="#000" stroke-linecap="square" stroke-width=".8" id="patch_3"/><path d="M414.72 307.584V41.472" fill="none" stroke="#000" stroke-linecap="square" stroke-width=".8" id="patch_4"/><path d="M57.6 307.584h357.12" fill="none" stroke="#000" stroke-linecap="square" stroke-width=".8" id="patch_5"/><path d="M57.6 41.472h357.12" fill="none" stroke="#000" stroke-linecap="square" stroke-width=".8" id="patch_6"/><text x="236.16" y="35.472" font-family="DejaVu Sans" font-size="12" font-weight="400" text-anchor="middle" id="text_15">Coin Flips for log(1+x)</text><g id="legend_1"><path d="M64.6 78.828h218.263q2 0 2-2V48.472q0-2-2-2H64.6q-2 0-2 2v28.356q0 2 2 2z" fill="#fff" opacity=".8" stroke="#ccc" id="patch_7"/><path d="M66.6 54.57h20" fill="none" stroke="#1f77b4" stroke-linecap="square" stroke-width="1.5" id="line2d_15"/><text x="94.6" y="58.07" font-family="DejaVu Sans" font-size="10" font-weight="400" id="text_16">Coin Flip Lower Bound</text><path d="M66.6 69.249h20" fill="none" stroke="#ff7f0e" stroke-linecap="square" stroke-width="1.5" id="line2d_17"/><text x="94.6" y="72.749" font-family="DejaVu Sans" font-size="10" font-weight="400" id="text_17">Avg. Coins Flipped log(1+x) (Flajolet)</text></g></g></g><defs><clipPath id="p8cf2af8156"><path d="M57.6 41.472h357.12v266.112H57.6z"/></clipPath></defs></svg>
